X: 2
T: Paddy Fahey's
R: reel
M: 4/4
L: 1/8
K: Dmaj
A,DFD CEAG|FGEF D2 ag|fd d2 fded EGAG EG=cG|
AGFD A,2 AG|FGEF D2 ag|fd d2 ADFA|G=CEG FD D2||
A,DFD CEAG|FGEF D2 ag|fd d2 fded EGAG EG=cG|
AGFD A,2 AG|FGEF D2 ag|fd d2 ADFA|G=CEG FD D2||
f/g/a a^g afdf|gfed cA A2|gBdg fAdf gfed cA A2|
faa^g afdf|gfef g2 ag|faeg fdAF|GECE D4||
f/g/a a^g afdf|gfed cAAa|g2 eg fAdf gfed cA A2|
faa^g afdf|g/a/g ef g2 ag|faeg fdAF|GECE D4||

composer: Paddy Fahey
